packages/sources/icons/src/vitamix/delete-bin-fill.svg

<svg width="16" height="16" viewBox="0 0 16 16" fill="none" xmlns="http://www.w3.org/2000/svg">
<path fill-rule="evenodd" clip-rule="evenodd" d="M4.66667 2.00001V4.00001H1.33333V5.33334H2.66667V14C2.66667 14.3682 2.96514 14.6667 3.33333 14.6667H12.6667C13.0349 14.6667 13.3333 14.3682 13.3333 14V5.33334H14.6667V4.00001H11.3333V2.00001C11.3333 1.63182 11.0349 1.33334 10.6667 1.33334H5.33333C4.96514 1.33334 4.66667 1.63182 4.66667 2.00001ZM6 4.00001V2.66668H10V4.00001H6Z" fill="#001018"/>
</svg>

<svg width="16" height="16" fill="none" xmlns="http://www.w3.org/2000/svg"><path fill-rule="evenodd" clip-rule="evenodd" d="M4.667 2v2H1.333v1.333h1.334V14c0 .368.298.667.666.667h9.334a.667.667 0 0 0 .666-.667V5.333h1.334V4h-3.334V2a.667.667 0 0 0-.666-.667H5.333A.667.667 0 0 0 4.667 2zM6 4V2.667h4V4H6z" fill="#001018"/></svg>
